X: 136
T: Divna, Divna
O: Serbia
F: http://www.youtube.com/watch?v=tQGMKCc2MnM
F: http://www.youtube.com/watch?v=Sm_5Noq9Yhc
Z:transcribed by Jutta Weber_Karn/Martin Junghans
Z:adapted and converted to abc notation by Seymour Shlien
F:http://www.folkloretanznoten.de/
M: 2/4
L: 1/16
K: Ador
Q: 1/4=108
|:"D" c3B A4|"G"B3A G4|"D"A3G A2B2|c6d2|c3B A4|"G"B3A G4|
"A" A3G F2G2|"D"A4 A2 z2|c2c2 cBA2|"G"G2B2 BAG2|"D"A3G A2G2|
c6d2|c2c2 cBA2|"G"B2B2 BAG2|"A"A3G F2G2|"D"A4 A2z2:|



